icon-themes/breeze_svg/cmd/sc_overline.svg

<svg viewBox="0 0 16 16" xmlns="http://www.w3.org/2000/svg">/&gt;<path d="m2 0v1h11v-1zm5.5 2c-1.933 0-3.5 1.34315-3.5 3v1 4 1c0 1.65685 1.567 3 3.5 3s3.5-1.34315 3.5-3v-5-1c0-1.65685-1.567-3-3.5-3zm.5 1c1.10457 0 2 .89543 2 2v2.09375 1.8125 1.09375 1c0 1.10457-.89543 2-2 2s-2-.89543-2-2v-2.6875-.625-1.6875-1c0-1.10457.89543-2 2-2z" fill="#4d4d4d"/></svg>

<svg xmlns="http://www.w3.org/2000/svg" viewBox="0 0 16 16">
     />
 <path 
     style="fill:#4d4d4d" 
     d="M 2 0 L 2 1 L 13 1 L 13 0 L 2 0 z M 7.5 2 C 5.567 2 4 3.34315 4 5 L 4 6 L 4 10 L 4 11 C 4 12.65685 5.567 14 7.5 14 C 9.433 14 11 12.65685 11 11 L 11 6 L 11 5 C 11 3.34315 9.433 2 7.5 2 z M 8 3 C 9.10457 3 10 3.89543 10 5 L 10 7.09375 L 10 8.90625 L 10 10 L 10 11 C 10 12.10457 9.10457 13 8 13 C 6.89543 13 6 12.10457 6 11 L 6 8.3125 L 6 7.6875 L 6 6 L 6 5 C 6 3.89543 6.89543 3 8 3 z "
     />
 </svg>
